X:1
T:Sussex, 87.87
T:Sussex, 87.87
T:English tune, arr. Ralph Vaughan Williiams
T:Public Domain Courtesy of the Cyber Hymnal™
C:English tune, arr. Ralph Vaughan Williiams
Z:Public Domain
Z:Courtesy of the Cyber Hymnal™
%%score ( 1 2 ) ( 3 4 )
L:1/8
Q:1/4=110
M:4/4
K:G
V:1 treble 
V:2 treble 
V:3 bass 
V:4 bass 
V:1
 [GB]2 [GB]2 [GB]3 [FA] | (GA) (BA) [EG]2 E2 | [Ec]2 [Gc]2 [GB]3 [FA] | G2 [GB]2 [FA]4 | %4
 [DG]2 [DG]2 E2 [A,D]2 | [DG]3 [EG] (AB) [Gc]2 | [Gd]3 [Dd] [Fc]2 (BG) | [GA]2 [FA]2 G4 |] %8
V:2
 x8 | E2 D2 x E2 x | x8 | x8 | x4 (CB,) x2 | x4 F2 x2 | x6 G2 | x4 G4 |] %8
V:3
 [G,D]2 [G,D]2 [G,D]3 [D,D] | [E,B,]2 [B,,B,]2 [E,B,]2 [E,G,]2 | [C,C]2 [E,C]2 [G,D]3 [D,D] | %3
 [E,B,]2 [B,,G,]2 [D,A,]4 | [G,,B,]2 [B,,G,]2 [C,G,]2 [D,F,]2 | [B,,G,]3 [E,B,] [D,D]2 [C,E]2 | %6
 [B,,D]3 [B,,G,] [A,,C]2 [B,,D]2 | [C,E]2 (DC) [G,,B,]4 |] %8
V:4
 x8 | x8 | x8 | x8 | x8 | x8 | x8 | x2 D,2 x4 |] %8

